icons/1_Primary/MangaDex.svg

<svg xmlns="http://www.w3.org/2000/svg" width="1024" height="1024" fill="none">
   <g clip-path="url(#a)">
      <path fill="#FF837D" d="M512 1024c282.77 0 512-229.23 512-512S794.77 0 512 0 0 229.23 0 512s229.23 512 512 512Z"/>
      <path fill="#fff" d="M735.56 566a8.711 8.711 0 0 1-8.71 8.71h-392.3a8.717 8.717 0 0 1-8.425-8.715 8.722 8.722 0 0 1 8.425-8.715h392.3a8.72 8.72 0 0 1 8.71 8.72Zm-228.19 85c-1.91-1.88-3.94-3.65-6-5.34A67.232 67.232 0 0 0 453 685.23a28.934 28.934 0 0 1 15.65 9.56 29.521 29.521 0 0 1 2 2.72 28.534 28.534 0 0 1 4.47 11.88c.043.208.073.418.09.63.134.907.201 1.823.2 2.74v.68c.01.18.01.36 0 .54v.07a28.209 28.209 0 0 0 2.07 10.17 29.13 29.13 0 0 0 11.61 13.84 28.93 28.93 0 0 0 26.839 1.852 28.93 28.93 0 0 0 16.751-21.052c.234-1.111.388-2.237.46-3.37v-2.77a86.425 86.425 0 0 0-6.674-33.453A86.42 86.42 0 0 0 507.37 651Zm219.48-60.61h-392.3a8.712 8.712 0 0 0-6.162 2.553 8.712 8.712 0 0 0 0 12.325 8.715 8.715 0 0 0 6.162 2.552h328.1v48.5l25-14.46 25 14.47v-48.56h14.27a8.712 8.712 0 0 0 6.162-2.553 8.712 8.712 0 0 0 0-12.324 8.712 8.712 0 0 0-6.162-2.553l-.07.05Zm-90.6-46.72c2.26-1.46 4.37-3.09 6.51-4.65h-1.61c-1.67 1.47-3.32 2.98-4.9 4.6v.05Zm145.19-77.1a43.482 43.482 0 0 0-1.87-7.16l-.48-.41-.49-.41a81.963 81.963 0 0 1-2.42-2.19 96.78 96.78 0 0 1-2.34-2.28 14.568 14.568 0 0 0-5.05 5.15 14.416 14.416 0 0 0 .01 14.418 14.422 14.422 0 0 0 12.49 7.202h.23c0-.3.1-.6.15-.9.05-.3.11-.6.14-.91.1-.807.17-1.623.21-2.45 0-.82.07-1.65.07-2.48a44.652 44.652 0 0 0-.65-7.63v.05Zm-.93 19.11a44.483 44.483 0 0 1-16.3 24.16c-.421.255-.828.532-1.22.83-.305.2-.599.417-.88.65a22.534 22.534 0 0 0-7.54 11c-.11.34-.22.71-.3 1.06A22.636 22.636 0 0 1 732.72 539h-90a47.54 47.54 0 0 1 5.65-3.66c2.09-1.26 4.1-2.64 6.23-3.82l6.49-3.36a180.458 180.458 0 0 1 27.08-10.76 250.99 250.99 0 0 1 28.38-6.94c4.81-.89 9.65-1.64 14.51-2.21 4.86-.73 9.75-1.11 14.67-1.5a144.28 144.28 0 0 0-29.62.76 165.784 165.784 0 0 0-29.1 6.18 133.181 133.181 0 0 0-27.34 11.84A102.11 102.11 0 0 0 641.15 539H343.71a43.499 43.499 0 0 0-40.21 26.864 43.512 43.512 0 0 0-3.31 16.656c0 1 0 2 .11 2.94A43.472 43.472 0 0 0 343 626c.246.014.493.014.74 0 .246.014.493.014.74 0h102a87.086 87.086 0 0 1 24.35 3.47A85.992 85.992 0 0 1 494 640.22a74.084 74.084 0 0 0-47.48 42.28l-.84 2H322.27a81.837 81.837 0 0 1-38.14-10.48 82.36 82.36 0 0 1-42.21-72V553.9c0-5 .19-10 .59-14.92a192.203 192.203 0 0 1 111.8-160 190.196 190.196 0 0 1 62.06-16.47c5.84-.55 11.76-.83 17.73-.83a191.636 191.636 0 0 1 64.78 11.2 188.125 188.125 0 0 1 19.67 8.32c2 1 4 2 6 3.07.19-.34.4-.66.59-1a218.906 218.906 0 0 1 4.87-8.18 211.04 211.04 0 0 1 5.26-8 205.42 205.42 0 0 1 134.57-85.36 6.369 6.369 0 0 1 1-.15c.13-.011.26-.011.39 0a5.62 5.62 0 0 1 3.97 1.647 5.62 5.62 0 0 1 1.64 3.973 5.75 5.75 0 0 1-.16 1.32 82.781 82.781 0 0 0-64.72 92.82 155.136 155.136 0 0 1 47.18-30.06v-2a112.998 112.998 0 0 1 17.55-60.65c-.111.45-.279.883-.5 1.29a97.998 97.998 0 0 0-12.18 47.44c0 1.5 0 3 .11 4.49.51.13 1 .3 1.52.43 3.18.82 6.34 1.7 9.45 2.71 1.4.46 2.76 1 4.15 1.5 2.18.78 4.37 1.55 6.5 2.42 1.57.64 3.1 1.37 4.64 2.06 1.88.84 3.76 1.67 5.6 2.58 1.63.81 3.22 1.69 4.81 2.55 1.59.86 3.35 1.81 5 2.78 1.65.97 3.25 2 4.86 3 1.61 1 3 1.94 4.48 3a163.195 163.195 0 0 1 4.82 3.48 230.631 230.631 0 0 1 4 3.11c1.6 1.28 3.173 2.59 4.72 3.93 1.22 1.06 2.42 2.15 3.61 3.24 1.55 1.43 3.08 2.87 4.57 4.36.39.39.77.81 1.16 1.2 1.72 1.76 3.48 3.49 5.12 5.33l.71.81a22.554 22.554 0 0 1 4.86 10.8v.13c.07.7.15 1.4.23 2.09a88 88 0 0 0 10.72 32l.13.26a88.757 88.757 0 0 0 10.78 14.81 19.478 19.478 0 0 0-6 6.33 19.225 19.225 0 0 0 6.573 26.023 19.226 19.226 0 0 0 9.377 2.827v.07Zm-94.12-49.12a5.502 5.502 0 0 0 5.49 5.49 5.422 5.422 0 0 0 2.44-.57c.146-.115.308-.209.48-.28l.09-.06a30.411 30.411 0 0 1 4.12-1.88 28.869 28.869 0 0 1 4.75-1.33 29.45 29.45 0 0 1 5.93-.59c.85 0 1.68 0 2.51.11a30.354 30.354 0 0 1 12.76 4 5.64 5.64 0 0 0 2.61.65 5.482 5.482 0 0 0 3-10c-.18-.11-.35-.22-.55-.33-.7-.39-1.39-.76-2.11-1.09A40.744 40.744 0 0 0 717 427c-.9-.16-1.8-.34-2.72-.44-1.08-.12-2.19-.15-3.29-.19-.42 0-.82-.07-1.24-.07a41.268 41.268 0 0 0-8.1.83c-.27.05-.54.07-.81.13a41.489 41.489 0 0 0-8.17 2.82c-1.1.5-2.24.95-3.28 1.54-.19.098-.374.209-.55.33-.13.08-.22.2-.34.29a5.395 5.395 0 0 0-2.11 4.28v.04Zm60.06 59.79a145.055 145.055 0 0 0-29.08-5.66 166.36 166.36 0 0 0-29.75-.25 133.513 133.513 0 0 0-29.25 5.56 107.025 107.025 0 0 0-26.83 12.64c4.65-1.73 8.92-4.17 13.66-5.48 2.31-.78 4.57-1.7 6.91-2.39l7.07-1.89a181.3 181.3 0 0 1 28.77-4.66 249.977 249.977 0 0 1 29.21-.65c4.89.17 9.77.48 14.65 1 4.9.36 9.75 1.05 14.64 1.74v.04Zm4.27-8.94a144.223 144.223 0 0 0-27.92-9.91 165.971 165.971 0 0 0-29.38-4.67 133.71 133.71 0 0 0-29.77 1.17 106.993 106.993 0 0 0-28.41 8.52c4.86-1 9.44-2.8 14.33-3.39 2.4-.43 4.77-1 7.19-1.34L664 477a181.512 181.512 0 0 1 29.14-.34 250.53 250.53 0 0 1 29 3.7c4.81.9 9.59 1.93 14.34 3.14 4.81 1.06 9.52 2.5 14.24 3.87v.04Z"/>
   </g>
   <defs>
      <clipPath id="a">
         <path fill="#fff" d="M0 0h1024v1024H0z"/>
      </clipPath>
   </defs>
</svg>

<svg width="1024" height="1024" viewBox="0 0 1024 1024" fill="none" xmlns="http://www.w3.org/2000/svg">
<g clip-path="url(#clip0_2_2748)">
<path d="M512 1024C794.77 1024 1024 794.77 1024 512C1024 229.23 794.77 0 512 0C229.23 0 0 229.23 0 512C0 794.77 229.23 1024 512 1024Z" fill="#FF837D"/>
<path d="M735.56 566C735.56 568.31 734.642 570.526 733.009 572.159C731.375 573.792 729.16 574.71 726.85 574.71H334.55C332.29 574.634 330.148 573.682 328.576 572.056C327.004 570.43 326.125 568.257 326.125 565.995C326.125 563.734 327.004 561.56 328.576 559.934C330.148 558.308 332.29 557.357 334.55 557.28H726.85C729.161 557.283 731.376 558.203 733.009 559.838C734.643 561.473 735.56 563.689 735.56 566ZM507.37 651C505.46 649.12 503.43 647.35 501.37 645.66C490.706 647.847 480.733 652.591 472.308 659.483C463.882 666.376 457.257 675.211 453 685.23C459.115 686.635 464.608 689.991 468.65 694.79C469.368 695.658 470.036 696.566 470.65 697.51C473.013 701.084 474.541 705.145 475.12 709.39C475.163 709.598 475.193 709.808 475.21 710.02C475.344 710.927 475.411 711.843 475.41 712.76V713.44C475.42 713.62 475.42 713.8 475.41 713.98V714.05C475.465 717.539 476.167 720.987 477.48 724.22C479.786 729.947 483.851 734.794 489.09 738.06C493.079 740.52 497.606 741.974 502.281 742.297C506.956 742.619 511.64 741.801 515.929 739.912C520.218 738.022 523.983 735.119 526.901 731.452C529.819 727.785 531.802 723.464 532.68 718.86C532.914 717.749 533.068 716.623 533.14 715.49V712.72C533.16 701.236 530.891 689.864 526.466 679.267C522.042 668.669 515.55 659.06 507.37 651ZM726.85 590.39H334.55C332.239 590.39 330.022 591.308 328.388 592.943C326.753 594.577 325.835 596.794 325.835 599.105C325.835 601.416 326.753 603.633 328.388 605.268C330.022 606.902 332.239 607.82 334.55 607.82H662.65V656.32L687.65 641.86L712.65 656.33V607.77H726.92C729.231 607.77 731.448 606.852 733.082 605.217C734.717 603.583 735.635 601.366 735.635 599.055C735.635 596.744 734.717 594.527 733.082 592.893C731.448 591.258 729.231 590.34 726.92 590.34L726.85 590.39ZM636.25 543.67C638.51 542.21 640.62 540.58 642.76 539.02H641.15C639.48 540.49 637.83 542 636.25 543.62V543.67ZM781.44 466.57C781.021 464.135 780.396 461.739 779.57 459.41L779.09 459L778.6 458.59C777.78 457.877 776.973 457.147 776.18 456.4C775.387 455.653 774.607 454.893 773.84 454.12C771.752 455.386 770.015 457.157 768.79 459.27C767.526 461.463 766.862 463.95 766.864 466.48C766.866 469.011 767.533 471.497 768.8 473.688C770.067 475.879 771.888 477.698 774.08 478.962C776.273 480.226 778.759 480.891 781.29 480.89H781.52C781.52 480.59 781.62 480.29 781.67 479.99C781.72 479.69 781.78 479.39 781.81 479.08C781.91 478.273 781.98 477.457 782.02 476.63C782.02 475.81 782.09 474.98 782.09 474.15C782.092 471.593 781.875 469.04 781.44 466.52V466.57ZM780.51 485.68C777.944 495.335 772.202 503.846 764.21 509.84C763.789 510.095 763.382 510.372 762.99 510.67C762.685 510.87 762.391 511.087 762.11 511.32C758.544 514.142 755.916 517.977 754.57 522.32C754.46 522.66 754.35 523.03 754.27 523.38C752.788 527.926 749.904 531.885 746.033 534.691C742.161 537.497 737.501 539.006 732.72 539H642.72C644.514 537.648 646.403 536.425 648.37 535.34C650.46 534.08 652.47 532.7 654.6 531.52L661.09 528.16C669.812 523.849 678.868 520.251 688.17 517.4C697.487 514.538 706.963 512.22 716.55 510.46C721.36 509.57 726.2 508.82 731.06 508.25C735.92 507.52 740.81 507.14 745.73 506.75C735.857 505.986 725.931 506.241 716.11 507.51C706.244 508.694 696.505 510.762 687.01 513.69C677.482 516.602 668.312 520.573 659.67 525.53C653.011 529.311 646.799 533.83 641.15 539H343.71C337.994 538.999 332.335 540.124 327.054 542.31C321.773 544.497 316.975 547.702 312.934 551.744C308.892 555.785 305.687 560.583 303.5 565.864C301.313 571.145 300.189 576.805 300.19 582.52C300.19 583.52 300.19 584.52 300.3 585.46C301.034 596.342 305.832 606.551 313.741 614.06C321.651 621.57 332.095 625.832 343 626C343.246 626.014 343.493 626.014 343.74 626C343.986 626.014 344.233 626.014 344.48 626H446.48C454.72 625.999 462.918 627.167 470.83 629.47C479.045 631.88 486.855 635.503 494 640.22C483.444 643.302 473.706 648.695 465.494 656.008C457.281 663.321 450.8 672.37 446.52 682.5L445.68 684.5H322.27C308.891 684.178 295.795 680.579 284.13 674.02C271.318 666.867 260.65 656.421 253.229 643.763C245.809 631.104 241.904 616.693 241.92 602.02V553.9C241.92 548.9 242.11 543.9 242.51 538.98C245.16 504.757 256.927 471.869 276.587 443.732C296.248 415.595 323.085 393.236 354.31 378.98C373.914 370.013 394.899 364.443 416.37 362.51C422.21 361.96 428.13 361.68 434.1 361.68C456.177 361.654 478.093 365.443 498.88 372.88C505.589 375.279 512.156 378.056 518.55 381.2C520.55 382.2 522.55 383.2 524.55 384.27C524.74 383.93 524.95 383.61 525.14 383.27C526.707 380.503 528.33 377.777 530.01 375.09C531.69 372.403 533.443 369.737 535.27 367.09C550.884 344.616 570.832 325.488 593.941 310.83C617.05 296.171 642.855 286.278 669.84 281.73C670.169 281.654 670.503 281.603 670.84 281.58C670.97 281.569 671.1 281.569 671.23 281.58C671.967 281.58 672.698 281.726 673.379 282.008C674.06 282.291 674.679 282.705 675.2 283.227C675.721 283.749 676.134 284.368 676.416 285.05C676.697 285.732 676.841 286.463 676.84 287.2C676.838 287.645 676.784 288.088 676.68 288.52C656.126 292.888 638.003 304.909 625.984 322.145C613.966 339.382 608.952 360.544 611.96 381.34C625.735 368.544 641.722 358.358 659.14 351.28V349.28C659.108 327.807 665.196 306.769 676.69 288.63C676.579 289.08 676.411 289.513 676.19 289.92C668.18 304.448 663.989 320.771 664.01 337.36C664.01 338.86 664.01 340.36 664.12 341.85C664.63 341.98 665.12 342.15 665.64 342.28C668.82 343.1 671.98 343.98 675.09 344.99C676.49 345.45 677.85 345.99 679.24 346.49C681.42 347.27 683.61 348.04 685.74 348.91C687.31 349.55 688.84 350.28 690.38 350.97C692.26 351.81 694.14 352.64 695.98 353.55C697.61 354.36 699.2 355.24 700.79 356.1C702.38 356.96 704.14 357.91 705.79 358.88C707.44 359.85 709.04 360.88 710.65 361.88C712.26 362.88 713.65 363.82 715.13 364.88C716.758 366.011 718.365 367.171 719.95 368.36C721.283 369.373 722.617 370.41 723.95 371.47C725.55 372.75 727.123 374.06 728.67 375.4C729.89 376.46 731.09 377.55 732.28 378.64C733.83 380.07 735.36 381.51 736.85 383C737.24 383.39 737.62 383.81 738.01 384.2C739.73 385.96 741.49 387.69 743.13 389.53L743.84 390.34C746.393 393.443 748.071 397.171 748.7 401.14V401.27C748.77 401.97 748.85 402.67 748.93 403.36C750.405 414.618 754.046 425.485 759.65 435.36L759.78 435.62C762.853 440.915 766.465 445.878 770.56 450.43C768.107 452.059 766.056 454.224 764.56 456.76C762.895 459.632 762.002 462.886 761.968 466.205C761.934 469.525 762.76 472.796 764.366 475.701C765.972 478.607 768.303 481.046 771.133 482.783C773.962 484.519 777.193 485.493 780.51 485.61V485.68ZM686.39 436.56C686.393 438.015 686.972 439.41 688.001 440.439C689.03 441.468 690.425 442.047 691.88 442.05C692.727 442.053 693.562 441.858 694.32 441.48C694.466 441.365 694.628 441.271 694.8 441.2L694.89 441.14C696.215 440.412 697.592 439.783 699.01 439.26C700.552 438.682 702.142 438.237 703.76 437.93C705.712 437.533 707.698 437.336 709.69 437.34C710.54 437.34 711.37 437.34 712.2 437.45C716.698 437.818 721.057 439.185 724.96 441.45C725.765 441.874 726.66 442.097 727.57 442.1C728.732 442.079 729.857 441.69 730.783 440.988C731.709 440.287 732.388 439.309 732.722 438.196C733.056 437.083 733.027 435.892 732.64 434.797C732.254 433.701 731.529 432.757 730.57 432.1C730.39 431.99 730.22 431.88 730.02 431.77C729.32 431.38 728.63 431.01 727.91 430.68C724.466 428.943 720.792 427.704 717 427C716.1 426.84 715.2 426.66 714.28 426.56C713.2 426.44 712.09 426.41 710.99 426.37C710.57 426.37 710.17 426.3 709.75 426.3C707.029 426.309 704.316 426.587 701.65 427.13C701.38 427.18 701.11 427.2 700.84 427.26C698.026 427.913 695.288 428.858 692.67 430.08C691.57 430.58 690.43 431.03 689.39 431.62C689.2 431.718 689.016 431.829 688.84 431.95C688.71 432.03 688.62 432.15 688.5 432.24C687.843 432.744 687.311 433.392 686.946 434.134C686.58 434.876 686.39 435.693 686.39 436.52V436.56ZM746.45 496.35C736.975 493.476 727.231 491.579 717.37 490.69C707.481 489.718 697.524 489.635 687.62 490.44C677.693 491.197 667.882 493.062 658.37 496C648.883 498.948 639.853 503.202 631.54 508.64C636.19 506.91 640.46 504.47 645.2 503.16C647.51 502.38 649.77 501.46 652.11 500.77L659.18 498.88C668.629 496.557 678.25 494.999 687.95 494.22C697.666 493.434 707.419 493.217 717.16 493.57C722.05 493.74 726.93 494.05 731.81 494.57C736.71 494.93 741.56 495.62 746.45 496.31V496.35ZM750.72 487.41C741.778 483.157 732.422 479.836 722.8 477.5C713.166 475.067 703.333 473.504 693.42 472.83C683.484 472.11 673.499 472.502 663.65 474C653.83 475.507 644.269 478.375 635.24 482.52C640.1 481.52 644.68 479.72 649.57 479.13C651.97 478.7 654.34 478.13 656.76 477.79L664 477C673.688 476.106 683.433 475.992 693.14 476.66C702.87 477.328 712.554 478.563 722.14 480.36C726.95 481.26 731.73 482.29 736.48 483.5C741.29 484.56 746 486 750.72 487.37V487.41Z" fill="white"/>
</g>
<defs>
<clipPath id="clip0_2_2748">
<rect width="1024" height="1024" fill="white"/>
</clipPath>
</defs>
</svg>
